icons/php-logo.svg

<svg xmlns="http://www.w3.org/2000/svg" width="256" height="256" viewBox="0 0 256 256"><g fill="none"><rect width="256" height="256" fill="#242938" rx="60"/><path fill="#fff" d="M49.158 100.246h28.408c8.338.07 14.38 2.474 18.126 7.208c3.746 4.734 4.982 11.2 3.71 19.398c-.494 3.746-1.59 7.42-3.286 11.024c-1.626 3.604-3.886 6.854-6.784 9.752c-3.534 3.674-7.314 6.006-11.342 6.996c-4.028.99-8.198 1.484-12.508 1.484h-12.72l-4.028 20.14H34zM61.56 112.33l-6.36 31.8c.424.07.848.106 1.272.106h1.484c6.784.07 12.438-.6 16.96-2.014c4.522-1.484 7.562-6.642 9.116-15.476c1.272-7.42 0-11.696-3.816-12.826c-3.746-1.13-8.444-1.66-14.098-1.59c-.848.07-1.66.106-2.438.106h-2.226zM116.186 80h14.628l-4.134 20.246h13.144c7.208.142 12.578 1.626 16.112 4.452c3.604 2.826 4.664 8.198 3.18 16.112l-7.102 35.298h-14.84l6.784-33.708c.706-3.534.494-6.042-.636-7.526s-3.568-2.226-7.314-2.226l-11.766-.106l-8.692 43.566h-14.628zm58.638 20.246h28.408c8.338.07 14.38 2.474 18.126 7.208c3.746 4.734 4.982 11.2 3.71 19.398c-.494 3.746-1.59 7.42-3.286 11.024c-1.626 3.604-3.886 6.854-6.784 9.752c-3.534 3.674-7.314 6.006-11.342 6.996c-4.028.99-8.198 1.484-12.508 1.484h-12.72l-4.028 20.14h-14.734zm12.402 12.084l-6.36 31.8c.424.07.848.106 1.272.106h1.484c6.784.07 12.438-.6 16.96-2.014c4.522-1.484 7.562-6.642 9.116-15.476c1.272-7.42 0-11.696-3.816-12.826c-3.746-1.13-8.444-1.66-14.098-1.59c-.848.07-1.66.106-2.438.106h-2.226z"/></g></svg>

<svg xmlns="http://www.w3.org/2000/svg" width="256" height="256" fill="none" viewBox="0 0 256 256"><rect width="256" height="256" fill="#F4F2ED" rx="60"/><path fill="#000" d="M49.158 100.246H77.566C85.904 100.316 91.946 102.72 95.692 107.454C99.438 112.188 100.674 118.654 99.402 126.852C98.908 130.598 97.812 134.272 96.116 137.876C94.49 141.48 92.23 144.73 89.332 147.628C85.798 151.302 82.018 153.634 77.99 154.624C73.962 155.614 69.792 156.108 65.482 156.108H52.762L48.734 176.248H34L49.158 100.246V100.246ZM61.56 112.33L55.2 144.13C55.624 144.2 56.048 144.236 56.472 144.236C56.966 144.236 57.462 144.236 57.956 144.236C64.74 144.306 70.394 143.636 74.916 142.222C79.438 140.738 82.478 135.58 84.032 126.746C85.304 119.326 84.032 115.05 80.216 113.92C76.47 112.79 71.772 112.26 66.118 112.33C65.27 112.4 64.458 112.436 63.68 112.436C62.974 112.436 62.232 112.436 61.454 112.436L61.56 112.33"/><path fill="#000" d="M116.186 80H130.814L126.68 100.246H139.824C147.032 100.388 152.402 101.872 155.936 104.698C159.54 107.524 160.6 112.896 159.116 120.81L152.014 156.108H137.174L143.958 122.4C144.664 118.866 144.452 116.358 143.322 114.874C142.192 113.39 139.754 112.648 136.008 112.648L124.242 112.542L115.55 156.108H100.922L116.186 80Z"/><path fill="#000" d="M174.824 100.246H203.232C211.57 100.316 217.612 102.72 221.358 107.454C225.104 112.188 226.34 118.654 225.068 126.852C224.574 130.598 223.478 134.272 221.782 137.876C220.156 141.48 217.896 144.73 214.998 147.628C211.464 151.302 207.684 153.634 203.656 154.624C199.628 155.614 195.458 156.108 191.148 156.108H178.428L174.4 176.248H159.666L174.824 100.246V100.246ZM187.226 112.33L180.866 144.13C181.29 144.2 181.714 144.236 182.138 144.236C182.632 144.236 183.128 144.236 183.622 144.236C190.406 144.306 196.06 143.636 200.582 142.222C205.104 140.738 208.144 135.58 209.698 126.746C210.97 119.326 209.698 115.05 205.882 113.92C202.136 112.79 197.438 112.26 191.784 112.33C190.936 112.4 190.124 112.436 189.346 112.436C188.64 112.436 187.898 112.436 187.12 112.436L187.226 112.33"/></svg>
